public/img/icons/prize1.svg

<svg width="75" height="25" viewBox="0 0 75 25" fill="none" xmlns="http://www.w3.org/2000/svg">
<path d="M6.25296 14.4687H0.55696L0.557019 9.73275H6.25302L6.25309 3.94075H11.1811L11.181 9.73275H16.877L16.877 14.4687H11.181L11.1809 20.2607H6.25289L6.25296 14.4687Z" fill="url(#paint0_linear_683_10413)"/>
<path d="M19.2794 18.8847H24.2394L24.2395 7.01275L19.2795 10.5327L19.2796 4.77275L24.2716 1.22075H29.9996L29.9994 18.8847H33.9994L33.9993 23.6207H19.2793L19.2794 18.8847Z" fill="url(#paint1_linear_683_10413)"/>
<path d="M44.8681 24.0367C43.6094 24.0367 42.4361 23.8341 41.3481 23.4287C40.2601 23.0021 39.3108 22.3301 38.5001 21.4127C37.6895 20.4954 37.0495 19.3007 36.5802 17.8287C36.1322 16.3354 35.9082 14.5327 35.9082 12.4207L35.9082 11.7807C35.9083 9.81808 36.1323 8.14342 36.5803 6.75675C37.0497 5.37008 37.6897 4.23942 38.5003 3.36475C39.311 2.46875 40.2604 1.81808 41.3484 1.41275C42.4364 1.00742 43.6097 0.804749 44.8684 0.804749C46.127 0.804749 47.3004 1.00742 48.3884 1.41275C49.4764 1.81808 50.4257 2.46875 51.2363 3.36475C52.047 4.23942 52.6763 5.37008 53.1243 6.75675C53.5936 8.14342 53.8283 9.81808 53.8282 11.7807L53.8282 12.4207C53.8282 14.5327 53.5935 16.3354 53.1242 17.8287C52.6761 19.3007 52.0468 20.4954 51.2361 21.4127C50.4254 22.3301 49.4761 23.0021 48.3881 23.4287C47.3001 23.8341 46.1268 24.0367 44.8681 24.0367ZM44.8682 19.3007C45.2948 19.3007 45.7002 19.1941 46.0842 18.9807C46.4895 18.7674 46.8308 18.4047 47.1082 17.8927C47.4068 17.3594 47.6415 16.6554 47.8122 15.7807C47.9829 14.8847 48.0682 13.7647 48.0682 12.4207L48.0682 11.7807C48.0683 10.6074 47.9829 9.62608 47.8123 8.83675C47.6416 8.02608 47.407 7.37542 47.1083 6.88475C46.831 6.39408 46.4896 6.05275 46.0843 5.86075C45.7003 5.64742 45.295 5.54075 44.8683 5.54075C44.4417 5.54075 44.0257 5.64742 43.6203 5.86075C43.2363 6.05275 42.895 6.39408 42.5963 6.88475C42.319 7.37542 42.095 8.02608 41.9243 8.83675C41.7536 9.62608 41.6683 10.6074 41.6682 11.7807L41.6682 12.4207C41.6682 13.7647 41.7535 14.8847 41.9242 15.7807C42.0948 16.6554 42.3188 17.3594 42.5962 17.8927C42.8948 18.4047 43.2362 18.7674 43.6202 18.9807C44.0255 19.1941 44.4415 19.3007 44.8682 19.3007Z" fill="url(#paint2_linear_683_10413)"/>
<path d="M65.6806 24.0367C64.4219 24.0367 63.2486 23.8341 62.1606 23.4287C61.0726 23.0021 60.1233 22.3301 59.3126 21.4127C58.502 20.4954 57.862 19.3007 57.3927 17.8287C56.9447 16.3354 56.7207 14.5327 56.7207 12.4207L56.7207 11.7807C56.7208 9.81808 56.9448 8.14342 57.3928 6.75675C57.8622 5.37008 58.5022 4.23942 59.3128 3.36475C60.1235 2.46875 61.0729 1.81808 62.1609 1.41275C63.2489 1.00742 64.4222 0.804749 65.6809 0.804749C66.9395 0.804749 68.1129 1.00742 69.2009 1.41275C70.2889 1.81808 71.2382 2.46875 72.0488 3.36475C72.8595 4.23942 73.4888 5.37008 73.9368 6.75675C74.4061 8.14342 74.6408 9.81808 74.6407 11.7807L74.6407 12.4207C74.6407 14.5327 74.406 16.3354 73.9367 17.8287C73.4886 19.3007 72.8593 20.4954 72.0486 21.4127C71.2379 22.3301 70.2886 23.0021 69.2006 23.4287C68.1126 23.8341 66.9393 24.0367 65.6806 24.0367ZM65.6806 19.3007C66.1073 19.3007 66.5126 19.1941 66.8966 18.9807C67.302 18.7674 67.6433 18.4047 67.9207 17.8927C68.2193 17.3594 68.454 16.6554 68.6247 15.7807C68.7954 14.8847 68.8807 13.7647 68.8807 12.4207L68.8807 11.7807C68.8807 10.6074 68.7954 9.62608 68.6248 8.83675C68.4541 8.02608 68.2195 7.37542 67.9208 6.88475C67.6435 6.39408 67.3021 6.05275 66.8968 5.86075C66.5128 5.64742 66.1075 5.54075 65.6808 5.54075C65.2541 5.54075 64.8381 5.64742 64.4328 5.86075C64.0488 6.05275 63.7075 6.39408 63.4088 6.88475C63.1315 7.37542 62.9075 8.02608 62.7368 8.83675C62.5661 9.62608 62.4808 10.6074 62.4807 11.7807L62.4807 12.4207C62.4807 13.7647 62.566 14.8847 62.7367 15.7807C62.9073 16.6554 63.1313 17.3594 63.4087 17.8927C63.7073 18.4047 64.0487 18.7674 64.4327 18.9807C64.838 19.1941 65.254 19.3007 65.6806 19.3007Z" fill="url(#paint3_linear_683_10413)"/>
<defs>
<linearGradient id="paint0_linear_683_10413" x1="3.46252" y1="26.1644" x2="33.9374" y2="-41.6389" gradientUnits="userSpaceOnUse">
<stop offset="0.0989583" stop-color="#FFC62F"/>
<stop offset="0.3424" stop-color="#FFEAA5"/>
<stop offset="0.482125" stop-color="#EBD084"/>
<stop offset="1" stop-color="#A37207"/>
</linearGradient>
<linearGradient id="paint1_linear_683_10413" x1="3.46252" y1="26.1644" x2="33.9374" y2="-41.6389" gradientUnits="userSpaceOnUse">
<stop offset="0.0989583" stop-color="#FFC62F"/>
<stop offset="0.3424" stop-color="#FFEAA5"/>
<stop offset="0.482125" stop-color="#EBD084"/>
<stop offset="1" stop-color="#A37207"/>
</linearGradient>
<linearGradient id="paint2_linear_683_10413" x1="3.46252" y1="26.1644" x2="33.9374" y2="-41.6389" gradientUnits="userSpaceOnUse">
<stop offset="0.0989583" stop-color="#FFC62F"/>
<stop offset="0.3424" stop-color="#FFEAA5"/>
<stop offset="0.482125" stop-color="#EBD084"/>
<stop offset="1" stop-color="#A37207"/>
</linearGradient>
<linearGradient id="paint3_linear_683_10413" x1="3.46252" y1="26.1644" x2="33.9374" y2="-41.6389" gradientUnits="userSpaceOnUse">
<stop offset="0.0989583" stop-color="#FFC62F"/>
<stop offset="0.3424" stop-color="#FFEAA5"/>
<stop offset="0.482125" stop-color="#EBD084"/>
<stop offset="1" stop-color="#A37207"/>
</linearGradient>
</defs>
</svg>

<svg width="75" height="25" fill="none" xmlns="http://www.w3.org/2000/svg"><path d="M6.253 14.469H.557V9.733h5.696V3.94h4.928v5.792h5.696v4.736h-5.696v5.792H6.253v-5.792Z" fill="url(#a)"/><path d="M19.28 18.885h4.96V7.013l-4.96 3.52v-5.76l4.992-3.552H30v17.664h4v4.736H19.28v-4.736Z" fill="url(#b)"/><path d="M44.868 24.037c-1.259 0-2.432-.203-3.52-.608a7.34 7.34 0 0 1-2.848-2.016c-.81-.918-1.45-2.112-1.92-3.584-.448-1.494-.672-3.296-.672-5.408v-.64c0-1.963.224-3.638.672-5.024.47-1.387 1.11-2.518 1.92-3.392a7.182 7.182 0 0 1 2.848-1.952c1.088-.406 2.262-.608 3.52-.608 1.259 0 2.432.202 3.52.608a7.18 7.18 0 0 1 2.848 1.952c.811.874 1.44 2.005 1.888 3.392.47 1.386.704 3.061.704 5.024v.64c0 2.112-.235 3.914-.704 5.408-.448 1.472-1.077 2.666-1.888 3.584a7.34 7.34 0 0 1-2.848 2.016c-1.088.405-2.261.608-3.52.608Zm0-4.736c.427 0 .832-.107 1.216-.32.405-.214.747-.576 1.024-1.088.299-.534.534-1.238.704-2.112.17-.896.256-2.016.256-3.36v-.64c0-1.174-.085-2.155-.256-2.944-.17-.81-.405-1.462-.704-1.952-.277-.49-.618-.832-1.024-1.024a2.467 2.467 0 0 0-1.216-.32 2.65 2.65 0 0 0-1.248.32c-.384.192-.725.533-1.024 1.024-.277.49-.501 1.141-.672 1.952-.17.79-.256 1.77-.256 2.944v.64c0 1.344.086 2.464.256 3.36.17.874.395 1.578.672 2.112.299.512.64.874 1.024 1.088.406.213.822.32 1.248.32Z" fill="url(#c)"/><path d="M65.68 24.037c-1.258 0-2.431-.203-3.52-.608a7.34 7.34 0 0 1-2.847-2.016c-.811-.918-1.451-2.112-1.92-3.584-.448-1.494-.672-3.296-.672-5.408v-.64c0-1.963.224-3.638.672-5.024.47-1.387 1.11-2.518 1.92-3.392a7.182 7.182 0 0 1 2.848-1.952c1.088-.406 2.261-.608 3.52-.608 1.258 0 2.432.202 3.52.608a7.18 7.18 0 0 1 2.848 1.952c.81.874 1.44 2.005 1.888 3.392.47 1.386.704 3.061.704 5.024v.64c0 2.112-.235 3.914-.704 5.408-.448 1.472-1.078 2.666-1.888 3.584a7.34 7.34 0 0 1-2.848 2.016c-1.088.405-2.262.608-3.52.608Zm0-4.736c.427 0 .833-.107 1.217-.32.405-.214.746-.576 1.024-1.088.298-.534.533-1.238.704-2.112.17-.896.256-2.016.256-3.36v-.64c0-1.174-.086-2.155-.256-2.944-.17-.81-.406-1.462-.704-1.952-.278-.49-.619-.832-1.024-1.024a2.467 2.467 0 0 0-1.216-.32 2.65 2.65 0 0 0-1.248.32c-.384.192-.726.533-1.024 1.024-.277.49-.502 1.141-.672 1.952-.17.79-.256 1.77-.256 2.944v.64c0 1.344.085 2.464.256 3.36.17.874.394 1.578.672 2.112.298.512.64.874 1.024 1.088.405.213.821.32 1.248.32Z" fill="url(#d)"/><defs><linearGradient id="a" x1="3.463" y1="26.164" x2="33.937" y2="-41.639" gradientUnits="userSpaceOnUse"><stop offset=".099" stop-color="#FFC62F"/><stop offset=".342" stop-color="#FFEAA5"/><stop offset=".482" stop-color="#EBD084"/><stop offset="1" stop-color="#A37207"/></linearGradient><linearGradient id="b" x1="3.463" y1="26.164" x2="33.937" y2="-41.639" gradientUnits="userSpaceOnUse"><stop offset=".099" stop-color="#FFC62F"/><stop offset=".342" stop-color="#FFEAA5"/><stop offset=".482" stop-color="#EBD084"/><stop offset="1" stop-color="#A37207"/></linearGradient><linearGradient id="c" x1="3.463" y1="26.164" x2="33.937" y2="-41.639" gradientUnits="userSpaceOnUse"><stop offset=".099" stop-color="#FFC62F"/><stop offset=".342" stop-color="#FFEAA5"/><stop offset=".482" stop-color="#EBD084"/><stop offset="1" stop-color="#A37207"/></linearGradient><linearGradient id="d" x1="3.463" y1="26.164" x2="33.937" y2="-41.639" gradientUnits="userSpaceOnUse"><stop offset=".099" stop-color="#FFC62F"/><stop offset=".342" stop-color="#FFEAA5"/><stop offset=".482" stop-color="#EBD084"/><stop offset="1" stop-color="#A37207"/></linearGradient></defs></svg>
